X: 32829
T: Porch, The
R: jig
M: 6/8
K: Gmajor
GBd gdB|GBd cBA|GBd gdB|cBA edc|
GBd gdB|GBd cBA|cBA dcB|cAF G3||
DFA cBA|GAB d2 d|DFA cBA|BAG AGE|
DFA cBA|GAB d2 d|cBc dcB|cAF G3||

